X:300
T: Hare in the Corn B
S: "Sully's Irish Music Book"
Z: B.Black
L: 1/8
M: 6/8
R: jig
K: G
B2A||B3 A2G|BdB AGA|B2e d2B|ABA AGA|
B3 A2G|BdB AGA|B2e d2B|1 G3 B2A :|2\
G3||
ABd|e3 edB|e2f g2e|BAB d2B|A3 ABd|
e/f/ge edB|e2f g2e|BAB d2B|1 G3 :|2 G6||
